X:1
T:Standin In The Need of Prayer
T:Go chain the lion down
T:Copyright 1881 by The Riverside Press
T:Rodeheaver's Plantation Melodies
Z:Rodeheaver's Plantation Melodies
L:1/8
Q:1/4=70
M:4/4
K:G
V:1 treble nm="Soprano" snm="S."
V:1
 d | B>^A BG B3 G | E>D ED B,2 d | B>^A BG B3 G | F>E GF E3 || B,/B,/ | E<E E<E G G2 B,/B,/ | %7
w: Go|chain the li- on down. Go|chain the li- on down. Go|chain the li- on down. Be-|fore the Heav'n doors close.|Do you|see that good old sis- ter. Come a|
 E/E/E/E/ ED B,3 B, | %8
w: wag- gin up the hill so slow. She|
"_2. Do you see the good old christians.\n\n3. Do you see the good old preachers." E/E/E/E/ EE GG>EG | %9
w: wants to get to Heav'n in due- * time. Be-|
 F>E GF E3!D.C.! |] %10
w: fore the Heav'n doors close.|

